_includes/icons/ios-department.svg

<svg fill="#666" height="50" viewBox="0 0 50 50" width="50" xmlns="http://www.w3.org/2000/svg"><path d="m24.982422 2a1.0001 1.0001 0 0 0 -.447266.1132812l-20.9999998 10.9999998a1.0001 1.0001 0 0 0 -.5351562.886719v31a1.0001 1.0001 0 0 0 1 1h17 8 17a1.0001 1.0001 0 0 0 1-1v-31a1.0001 1.0001 0 0 0 -.535156-.886719l-21-10.9999998a1.0001 1.0001 0 0 0 -.482422-.1132812zm.017578 2.1289062 20 10.4765628v29.394531h-15v-9a1.0001 1.0001 0 0 0 -1-1h-8a1.0001 1.0001 0 0 0 -1 1v9h-15v-29.394531zm-17 11.8710938a1.0001 1.0001 0 0 0 -1 1v5a1.0001 1.0001 0 0 0 1 1h7a1.0001 1.0001 0 0 0 1-1v-5a1.0001 1.0001 0 0 0 -1-1zm13 0a1.0001 1.0001 0 0 0 -1 1v5a1.0001 1.0001 0 0 0 1 1h8a1.0001 1.0001 0 0 0 1-1v-5a1.0001 1.0001 0 0 0 -1-1zm14 0a1.0001 1.0001 0 0 0 -1 1v5a1.0001 1.0001 0 0 0 1 1h7a1.0001 1.0001 0 0 0 1-1v-5a1.0001 1.0001 0 0 0 -1-1zm-26 2h5v3h-5zm13 0h6v3h-6zm14 0h5v3h-5zm-28 7a1.0001 1.0001 0 0 0 -1 1v5a1.0001 1.0001 0 0 0 1 1h7a1.0001 1.0001 0 0 0 1-1v-5a1.0001 1.0001 0 0 0 -1-1zm13 0a1.0001 1.0001 0 0 0 -1 1v5a1.0001 1.0001 0 0 0 1 1h8a1.0001 1.0001 0 0 0 1-1v-5a1.0001 1.0001 0 0 0 -1-1zm14 0a1.0001 1.0001 0 0 0 -1 1v5a1.0001 1.0001 0 0 0 1 1h7a1.0001 1.0001 0 0 0 1-1v-5a1.0001 1.0001 0 0 0 -1-1zm-26 2h5v3h-5zm13 0h6v3h-6zm14 0h5v3h-5zm-28 7a1.0001 1.0001 0 0 0 -1 1v5a1.0001 1.0001 0 0 0 1 1h7a1.0001 1.0001 0 0 0 1-1v-5a1.0001 1.0001 0 0 0 -1-1zm27 0a1.0001 1.0001 0 0 0 -1 1v5a1.0001 1.0001 0 0 0 1 1h7a1.0001 1.0001 0 0 0 1-1v-5a1.0001 1.0001 0 0 0 -1-1zm-26 2h5v3h-5zm13 0h6v8h-6zm14 0h5v3h-5z"/></svg>

<svg xmlns="http://www.w3.org/2000/svg" viewBox="0 0 50 50" width="50" height="50" fill="#666"><path style="line-height:normal;text-indent:0;text-align:start;text-decoration-line:none;text-decoration-style:solid;text-decoration-color:#000;text-transform:none;block-progression:tb;isolation:auto;mix-blend-mode:normal" d="M 24.982422 2 A 1.0001 1.0001 0 0 0 24.535156 2.1132812 L 3.5351562 13.113281 A 1.0001 1.0001 0 0 0 3 14 L 3 45 A 1.0001 1.0001 0 0 0 4 46 L 21 46 L 29 46 L 46 46 A 1.0001 1.0001 0 0 0 47 45 L 47 14 A 1.0001 1.0001 0 0 0 46.464844 13.113281 L 25.464844 2.1132812 A 1.0001 1.0001 0 0 0 24.982422 2 z M 25 4.1289062 L 45 14.605469 L 45 44 L 30 44 L 30 35 A 1.0001 1.0001 0 0 0 29 34 L 21 34 A 1.0001 1.0001 0 0 0 20 35 L 20 44 L 5 44 L 5 14.605469 L 25 4.1289062 z M 8 16 A 1.0001 1.0001 0 0 0 7 17 L 7 22 A 1.0001 1.0001 0 0 0 8 23 L 15 23 A 1.0001 1.0001 0 0 0 16 22 L 16 17 A 1.0001 1.0001 0 0 0 15 16 L 8 16 z M 21 16 A 1.0001 1.0001 0 0 0 20 17 L 20 22 A 1.0001 1.0001 0 0 0 21 23 L 29 23 A 1.0001 1.0001 0 0 0 30 22 L 30 17 A 1.0001 1.0001 0 0 0 29 16 L 21 16 z M 35 16 A 1.0001 1.0001 0 0 0 34 17 L 34 22 A 1.0001 1.0001 0 0 0 35 23 L 42 23 A 1.0001 1.0001 0 0 0 43 22 L 43 17 A 1.0001 1.0001 0 0 0 42 16 L 35 16 z M 9 18 L 14 18 L 14 21 L 9 21 L 9 18 z M 22 18 L 28 18 L 28 21 L 22 21 L 22 18 z M 36 18 L 41 18 L 41 21 L 36 21 L 36 18 z M 8 25 A 1.0001 1.0001 0 0 0 7 26 L 7 31 A 1.0001 1.0001 0 0 0 8 32 L 15 32 A 1.0001 1.0001 0 0 0 16 31 L 16 26 A 1.0001 1.0001 0 0 0 15 25 L 8 25 z M 21 25 A 1.0001 1.0001 0 0 0 20 26 L 20 31 A 1.0001 1.0001 0 0 0 21 32 L 29 32 A 1.0001 1.0001 0 0 0 30 31 L 30 26 A 1.0001 1.0001 0 0 0 29 25 L 21 25 z M 35 25 A 1.0001 1.0001 0 0 0 34 26 L 34 31 A 1.0001 1.0001 0 0 0 35 32 L 42 32 A 1.0001 1.0001 0 0 0 43 31 L 43 26 A 1.0001 1.0001 0 0 0 42 25 L 35 25 z M 9 27 L 14 27 L 14 30 L 9 30 L 9 27 z M 22 27 L 28 27 L 28 30 L 22 30 L 22 27 z M 36 27 L 41 27 L 41 30 L 36 30 L 36 27 z M 8 34 A 1.0001 1.0001 0 0 0 7 35 L 7 40 A 1.0001 1.0001 0 0 0 8 41 L 15 41 A 1.0001 1.0001 0 0 0 16 40 L 16 35 A 1.0001 1.0001 0 0 0 15 34 L 8 34 z M 35 34 A 1.0001 1.0001 0 0 0 34 35 L 34 40 A 1.0001 1.0001 0 0 0 35 41 L 42 41 A 1.0001 1.0001 0 0 0 43 40 L 43 35 A 1.0001 1.0001 0 0 0 42 34 L 35 34 z M 9 36 L 14 36 L 14 39 L 9 39 L 9 36 z M 22 36 L 28 36 L 28 44 L 22 44 L 22 36 z M 36 36 L 41 36 L 41 39 L 36 39 L 36 36 z"/></svg>
